Breeze Round Dark/devices/24/auth-sim.svg

<svg viewBox="0 0 24 24" xmlns="http://www.w3.org/2000/svg">
    <style type="text/css" id="current-color-scheme">
        .ColorScheme-Text {
            color:#eff0f1;
        }
    </style><g transform="translate(1,1)">
    <path d="m5 3v16h12v-13.707031l-2.292969-2.2929688zm2 2h1v3h-.7070312l-1.2929688 1.2929688v-3.2929688c0-.554.446-1 1-1zm2 0h4v3h-4zm5 0h1c.554 0 1 .446 1 1v3.2929688l-1.292969-1.2929688h-.707031zm-6.2929688 4h6.5859378l1 1h.707031v3h-.707031l-1 1h-6.5859378l-1-1h-.7070312v-3h.7070312zm-1.7070312 4.707031 1.2929688 1.292969h.7070312v3h-1c-.554 0-1-.446-1-1zm10 0v3.292969c0 .554-.446 1-1 1h-1v-3h.707031zm-7 1.292969h4v3h-4z" class="ColorScheme-Text" fill="currentColor" fill-rule="evenodd"/>
</g></svg>

<svg xmlns="http://www.w3.org/2000/svg" viewBox="0 0 24 24" width="24" height="24">
  <style type="text/css" id="current-color-scheme">.ColorScheme-Text {color:#eff0f1;}</style>
  <g transform="translate(1,1)">
    <path d="m 5,5 v 12 c 0,0 0,2 2,2 2,0 6,0 8,0 2,0 2,-2 2,-2 V 5.292969 L 14.707031,3.0000002 C 14.707031,3.0000002 9,3 7,3 5,3 5,5 5,5 Z M 7,5 H 8 V 8 H 7.2929688 L 6,9.2929688 V 6 C 6,5.446 6.446,5 7,5 Z m 2,0 h 4 V 8 H 9 Z m 5,0 h 1 c 0.554,0 1,0.446 1,1 V 9.2929688 L 14.707031,8 H 14 Z M 7.7070312,9 h 6.5859378 l 1,1 H 16 v 3 h -0.707031 l -1,1 H 7.7070312 l -1,-1 H 6 V 10 H 6.7070312 Z M 6,13.707031 7.2929688,15 H 8 v 3 H 7 C 6.446,18 6,17.554 6,17 Z m 10,0 V 17 c 0,0.554 -0.446,1 -1,1 h -1 v -3 h 0.707031 z M 9,15 h 4 v 3 H 9 Z" class="ColorScheme-Text" fill="currentColor" fill-rule="evenodd"/>
  </g>
</svg>
